plugins/mention/ui/icons/mention.svg

<svg xmlns="http://www.w3.org/2000/svg" viewBox="0 0 128 128">
  <path fill-rule="evenodd" d="M73.309 62.5c-1.53 9.86-8.16 17.85-14.45 17.85-5.61 0-8.5-4.08-8.5-10.54 0-13.089 8.84-24.139 20.06-24.139 2.21 0 3.91.34 5.27.68L73.309 62.5zm14.45 44.2c-6.8 3.57-15.98 5.44-24.65 5.44-25.329 0-43.519-16.15-43.519-44.54 0-32.469 22.78-52.869 48.789-52.869 26.35 0 40.63 17.17 40.63 39.27 0 19.549-9.18 28.899-16.49 28.729-4.76-.17-5.95-4.76-4.25-14.79l5.1-31.449c-4.25-2.38-12.75-4.25-20.23-4.25-24.48 0-39.779 18.87-39.779 39.609 0 13.94 7.99 22.1 19.039 22.1 9.01 0 16.66-4.42 21.93-13.09h.34c.85 9.01 6.63 13.09 14.62 13.09 18.36 0 32.3-15.64 32.3-40.459 0-28.56-21.42-49.13-51.34-49.13C31.83 4.361 6.67 34.451 6.67 69.13c0 33.32 24.82 53.55 53.039 53.55 12.07 0 20.91-1.53 31.11-6.12l-3.06-9.86z"/>
</svg>

<?xml version="1.0" encoding="utf-8"?>
<!DOCTYPE svg PUBLIC "-//W3C//DTD SVG 1.1//EN" "http://www.w3.org/Graphics/SVG/1.1/DTD/svg11.dtd">
<svg version="1.1" xmlns="http://www.w3.org/2000/svg" xmlns:xlink="http://www.w3.org/1999/xlink" x="0px" y="0px"
	 viewBox="0 0 128 128" xml:space="preserve">
  <defs>
    <style>
      .cls-1 {
        fill: #000;
        fill-rule: evenodd;
      }
    </style>
  </defs>
<path d="M73.309,62.500 C71.779,72.360 65.149,80.350 58.859,80.350 C53.249,80.350 50.359,76.270 50.359,69.810 C50.359,56.721 59.199,45.671 70.419,45.671 C72.629,45.671 74.329,46.011 75.689,46.351 L73.309,62.500 ZM87.759,106.700 C80.959,110.270 71.779,112.140 63.109,112.140 C37.780,112.140 19.590,95.990 19.590,67.600 C19.590,35.131 42.370,14.731 68.379,14.731 C94.729,14.731 109.009,31.901 109.009,54.001 C109.009,73.550 99.829,82.900 92.519,82.730 C87.759,82.560 86.569,77.970 88.269,67.940 L93.369,36.491 C89.119,34.111 80.619,32.241 73.139,32.241 C48.659,32.241 33.360,51.111 33.360,71.850 C33.360,85.790 41.350,93.950 52.399,93.950 C61.409,93.950 69.059,89.530 74.329,80.860 L74.669,80.860 C75.519,89.870 81.299,93.950 89.289,93.950 C107.649,93.950 121.589,78.310 121.589,53.491 C121.589,24.931 100.169,4.361 70.249,4.361 C31.830,4.361 6.670,34.451 6.670,69.130 C6.670,102.450 31.490,122.680 59.709,122.680 C71.779,122.680 80.619,121.150 90.819,116.560 L87.759,106.700 Z" class="cls-1"/>
</svg>
